src/lib/packages/icons/src/assets/line/trend-up.svg

<svg width="24" height="24" viewBox="0 0 24 24" fill="none" xmlns="http://www.w3.org/2000/svg">
<path d="M21.75 7V11.1541C21.75 11.5681 21.414 11.9041 21 11.9041C20.586 11.9041 20.25 11.5681 20.25 11.1541V8.81104L14.237 14.824C13.554 15.507 12.445 15.507 11.762 14.824L9.176 12.238C9.078 12.14 8.92001 12.14 8.82201 12.238L3.529 17.531C3.383 17.677 3.191 17.751 2.999 17.751C2.807 17.751 2.615 17.678 2.469 17.531C2.176 17.238 2.176 16.763 2.469 16.47L7.762 11.177C8.445 10.494 9.554 10.494 10.237 11.177L12.823 13.7629C12.921 13.8609 13.079 13.8609 13.177 13.7629L19.19 7.75H16.847C16.433 7.75 16.097 7.414 16.097 7C16.097 6.586 16.433 6.25 16.847 6.25H21C21.098 6.25 21.195 6.27011 21.287 6.30811C21.47 6.38411 21.616 6.53011 21.692 6.71411C21.73 6.80511 21.75 6.902 21.75 7Z" fill="currentColor"/>
</svg>

<svg xmlns="http://www.w3.org/2000/svg" width="24" height="24" fill="none"><path fill="currentColor" d="M21.75 7v4.154a.75.75 0 0 1-1.5 0V8.811l-6.013 6.013a1.75 1.75 0 0 1-2.475 0l-2.586-2.586a.25.25 0 0 0-.354 0l-5.293 5.293a.748.748 0 0 1-1.06 0 .75.75 0 0 1 0-1.061l5.293-5.293a1.75 1.75 0 0 1 2.475 0l2.586 2.586a.25.25 0 0 0 .354 0L19.19 7.75h-2.343a.75.75 0 0 1 0-1.5H21a.75.75 0 0 1 .75.75Z"/></svg>
